!!!!SEGMENT: pl-wtm--r-1461--027_stefani-jozef--wszechstronne-cwiczenia-glosowe-l-appogiatura-z-dolu.krn
!!!cenid: 18xx:2204
!!!COM: Stefani, Józef
!!!COM-rismid: pe30024097
!!!CDT: 1800/04/16-1876/03/19
!!!CNT: Polish
!!!GTL: Wszechstronne ćwiczenia głosowe
!!!OTL: L’Appogiatura z dołu
!!!PDT:
!!!AGN: Secular
!!!SMS-siglum: PL-Wtm
!!!SMS-shelfmark: R 1461
!!!SMS-shelfwork: 027 G
!!!SMS-variant:
!!!SMS-altvar:
!!!NIFC-rismid: 1001120710
!!!URL-scan: http://repozytorium.nifc.pl/skany/pl-wtm-nut--r1461
!!!ONB-nifc: UWAGA: skan 0025, s. 46
!!!OMD: Allegro.
!!!key:
**kern	**kern	**kern
*part2	*part2	*part1
*staff3	*staff2	*staff1
*Iempty	*Iforte	*Itenor
*	*I"Fortepian	*I"Sopran/Tenor
*clefF4	*clefG2	*clefG2
*k[f#]	*k[f#]	*k[f#]
*G:	*G:	*G:
*M3/8	*M3/8	*M3/8
*all\right	*all\right	*all\right
=1	=1	=1
8GL 8GG\	8gL 8d 8B/	4g/
8G 8GG\	8g 8d 8B/	.
8GJ 8GG\	8bJ 8g 8d/	8b/
=2	=2	=2
.	.	(8qqg#X/
!	!	!LO:TX:t=P:problem:diminuendolike accent
8r	8r	4a^/)
8F#L 8FF#/	8aL 8d/	.
8F#J 8FF#/	8aJ 8c/	8cc\
=3	=3	=3
.	.	(8qqa#X/
!	!	!LO:TX:t=P:problem:diminuendolike accent
8r	8r	4b^<\)
8FnL 8FFn/	8gL 8d 8B/	.
8FJ 8FF/	8gJ 8d 8B/	8dd\
=4	=4	=4
.	.	(8qqb/
!	!	!LO:TX:t=P:problem:diminuendolike accent
8r	8r	4cc^<\)
8E\L	8gL 8c/	.
8C\J	8eJ 8c 8G</	8ee\
!!LO:LB:g=original
=5	=5	=5
.	.	(>8qqcc#X/
!	!	!LO:TX:t=P:problem:diminuendolike accent
8r	8r	4dd^<\)
8BB/L	8dL 8G/	.
8BB/J	8fnJ 8d 8G/	8ffn\
=6	=6	=6
.	.	(8qqdd#X/
!	!	!LO:TX:t=P:problem:diminuendolike accent
8r	8r	4ee^<\)
8C/L	8eL 8c 8G/	.
8C/J	8eJ 8c 8G/	8gg\
=7	=7	=7
.	.	(8qqee#X/
!	!	!LO:TX:t=P:problem:diminuendolike accent
8r	8r	4ff#X^<\)
8D\L	8f#XL 8c/	.
8D\J	8aJ 8f# 8c/	8aa\
=8	=8	=8
4G\	4g 4B/	4gg\
8r	8r	8r
=9	=9	=9
.	.	(8qqff#X/
!	!	!LO:TX:t=P:problem:diminuendolike accent
8r	8r	4.gg^<\)
8e\L	8ggL 8b 8g\	.
8E\J	8ggJ 8b 8g\	.
!!LO:LB:g=original
=10	=10	=10
.	.	(8qqee#X/
!	!	!LO:TX:t=P:problem:diminuendolike accent
8r	8r	4.ff#^<\)
!LO:TX:t=P:problem:mixed beam	!	!
8d\L	8ff#L 8b 8f#\	.
8D/J	8ff#J 8b 8f#\	.
=11	=11	=11
.	.	(8qqdd#X/
!	!	!LO:TX:t=P:problem:diminuendolike accent
8r	8r	4.ee^<\)
!LO:TX:t=P:problem:mixed beam	!	!
8c\L	8eeL 8cc 8g\	.
8C/J	8eeJ 8cc 8g\	.
=12	=12	=12
.	.	(8qqcc#X/
!	!	!LO:TX:t=P:problem:diminuendolike accent
8r	8r	4.dd^<\)
!LO:TX:t=P:problem:mixed beam	!	!
8B\L	8ddL 8g/	.
8BB/J	8ddJ 8g/	.
=13	=13	=13
.	.	(>8qqb/
!	!	!LO:TX:t=P:problem:diminuendolike accent
8r	8r	4.cc^<\)
!LO:TX:t=P:problem:mixed beam	!	!
8A\L	8ccL 8f# 8d/	.
8AA/J	8ccJ 8f# 8d/	.
=14	=14	=14
.	.	(>8qqa#X/
!	!	!LO:TX:t=P:problem:diminuendolike accent
8r	8r	4.b^/)
!LO:TX:t=P:problem:mixed beam	!	!
8G\L	8bL 8g 8d/	.
8GG/J	8bJ 8g 8d/	.
=15	=15	=15
.	.	(8qqg#X/
!	!	!LO:TX:t=P:problem:diminuendolike accent
8r	8r	4.a^/)
8D/L	8aL 8f# 8d 8c/	.
8DD/J	8aJ 8f# 8d 8c/	.
=16	=16	=16
4GG;/	4g 4d 4B;/	4g;/
8r	8r	8r
==	==	==
*-	*-	*-
!!!system-decoration: <s1>{(s2,s3)}
!!!RDF**kern: > = above
!!!RDF**kern: < = below
!!!AIN: 1 empty 1 tenor
!!!ENC: Marcin Jachim
!!!END: 2021-05-18
